assets/img/LOGOS/figma/pure_logo.svg

<svg width="170" height="273" viewBox="0 0 170 273" fill="none" xmlns="http://www.w3.org/2000/svg">
<path d="M18.998 88.8695L11.8447 38.2374C11.8447 38.2374 10.4807 33.2012 14.402 33.8968C18.3234 34.5897 71.3394 42.2343 71.3394 42.2343C71.3394 42.2343 76.146 42.7546 75.8754 46.7501C75.602 50.7457 74.2394 83.5752 53.2714 89.6548C44.746 92.0852 36.734 84.9637 36.3927 81.142C36.0527 77.3218 70.318 71.9365 82.0807 104.592C92.4794 137.422 93.3314 152.533 93.3314 152.533C93.3314 152.533 94.1847 155.139 91.286 154.965C88.3874 154.791 76.626 146.627 92.8207 141.765L102.366 141.417C102.366 141.417 110.721 141.243 110.721 147.495C110.721 153.749 106.118 154.965 103.561 154.791C101.003 154.618 102.026 151.604 102.026 151.604C102.026 151.604 104.923 78.016 103.901 75.2364C104.071 71.5887 105.266 70.3728 108.334 70.5467C111.914 70.7205 146.35 74.3683 147.202 75.0625C148.054 75.7581 151.805 75.4103 150.442 79.9261C149.077 84.4433 139.871 109.802 113.446 97.8184C109.357 95.733 118.903 91.7388 120.777 91.5649C123.165 91.0432 134.417 88.4375 147.713 94.3445C161.01 100.249 158.623 99.5546 158.623 99.5546C158.623 99.5546 161.691 100.772 162.545 95.0387C163.397 89.307 167.489 62.0353 167.147 59.0831C166.806 56.1296 168.511 55.4354 162.205 53.1775C155.897 50.9196 56.3394 12.183 41.3367 3.3252C37.9274 1.93539 34.1767 0.893376 34.1767 4.19331C34.1767 7.49325 35.6474 37.2402 35.6474 37.2402" stroke="#C7B169" stroke-width="4" stroke-miterlimit="10" stroke-linecap="round" stroke-linejoin="round"/>
<path d="M19.5766 92.965L18.9979 88.869" stroke="#C7B169" stroke-width="4" stroke-miterlimit="10" stroke-linecap="round" stroke-linejoin="round"/>
<path d="M20.369 154.488L17.877 268.066C17.877 268.066 17.137 271.507 15.765 269.26C14.737 267.574 16.9583 246.506 39.973 241.467C62.9877 236.43 86.3423 235.606 98.4463 250.327C111.913 266.48 107.481 267.87 106.118 266.827C104.753 265.786 74.921 232.522 71.8517 228.442C69.9637 225.929 64.0103 207.77 83.2743 209.334C77.8183 204.817 55.1463 200.301 36.733 179.109C18.3223 157.918 2.29833 114.841 2.29833 114.841C2.29833 114.841 1.105 112.929 3.49167 112.583C5.87833 112.235 42.8703 105.634 53.9517 107.024C64.3503 108.935 75.7717 134.642 63.4983 150.449C58.8957 156.182 34.6877 159.482 32.6423 153.228C30.957 148.077 24.5903 120.017 22.337 110.015" stroke="#C7B169" stroke-width="4" stroke-miterlimit="10" stroke-linecap="round" stroke-linejoin="round"/>
<path d="M19.4822 93.966C22.1835 88.2111 27.4088 82.5365 37.3648 79.9348" stroke="#C7B169" stroke-width="4" stroke-miterlimit="10" stroke-linecap="round" stroke-linejoin="round"/>
<path d="M16.8807 110.413C16.8807 110.413 15.6594 102.109 19.482 93.9674" stroke="#C7B169" stroke-width="4" stroke-miterlimit="10" stroke-linecap="round" stroke-linejoin="round"/>
<path d="M81.3956 208.101C83.817 209.43 85.2583 209.895 87.8036 210.191C94.197 210.938 99.9916 203.855 99.9916 197.3C99.9916 190.742 94.829 184.905 88.3943 184.905" stroke="#C7B169" stroke-width="4" stroke-miterlimit="10" stroke-linecap="round" stroke-linejoin="round"/>
<path d="M71.1915 169.404C71.1915 169.404 79.2462 163.021 79.5662 162.63C79.8862 162.24 80.8449 161.197 82.6355 162.63C84.4249 164.062 89.2195 168.817 96.3142 163.021C98.1062 161.898 98.6169 162.043 99.1915 162.63C99.7675 163.216 108.91 170.642 108.91 170.642C108.91 170.642 111.21 171.814 109.741 174.94C108.27 178.067 88.7715 195.784 69.8489 174.94C67.2275 171.943 71.1915 169.404 71.1915 169.404Z" stroke="#C7B169" stroke-width="4" stroke-miterlimit="10" stroke-linecap="round" stroke-linejoin="round"/>
<path d="M69.3698 172.042L109.804 172.27" stroke="#C7B169" stroke-width="4" stroke-miterlimit="10" stroke-linecap="round" stroke-linejoin="round"/>
</svg>

<svg width="170" height="273" fill="none" xmlns="http://www.w3.org/2000/svg"><path d="M18.998 88.87l-7.153-50.633s-1.364-5.036 2.557-4.34c3.921.693 56.937 8.337 56.937 8.337s4.807.52 4.536 4.516c-.273 3.996-1.636 36.825-22.604 42.905-8.525 2.43-16.537-4.691-16.878-8.513-.34-3.82 33.925-9.206 45.688 23.45 10.398 32.83 11.25 47.941 11.25 47.941s.854 2.606-2.045 2.432c-2.899-.174-14.66-8.338 1.535-13.2l9.545-.348s8.355-.174 8.355 6.078c0 6.254-4.603 7.47-7.16 7.296-2.558-.173-1.535-3.187-1.535-3.187s2.897-73.588 1.875-76.368c.17-3.647 1.365-4.863 4.433-4.69 3.58.174 38.016 3.822 38.868 4.516.852.696 4.603.348 3.24 4.864-1.365 4.517-10.571 29.876-36.996 17.892-4.089-2.085 5.457-6.08 7.331-6.253 2.388-.522 13.64-3.127 26.936 2.78 13.297 5.904 10.91 5.21 10.91 5.21s3.068 1.217 3.922-4.516c.852-5.732 4.944-33.004 4.602-35.956-.341-2.953 1.364-3.648-4.942-5.905C155.897 50.92 56.339 12.183 41.337 3.325c-3.41-1.39-7.16-2.432-7.16.868s1.47 33.047 1.47 33.047m-16.07 55.725l-.58-4.096" stroke="#C7B169" stroke-width="4" stroke-miterlimit="10" stroke-linecap="round" stroke-linejoin="round"/><path d="M20.369 154.488l-2.492 113.578s-.74 3.441-2.112 1.194c-1.028-1.686 1.193-22.754 24.208-27.793 23.015-5.037 46.37-5.861 58.473 8.86 13.467 16.153 9.035 17.543 7.672 16.5-1.365-1.041-31.197-34.305-34.266-38.385-1.888-2.513-7.842-20.672 11.422-19.108-5.456-4.517-28.128-9.033-46.541-30.225-18.41-21.191-34.435-64.268-34.435-64.268s-1.193-1.912 1.194-2.258c2.386-.348 39.378-6.949 50.46-5.559 10.398 1.911 21.82 27.618 9.546 43.425-4.602 5.733-28.81 9.033-30.856 2.779-1.685-5.151-8.052-33.211-10.305-43.213m-2.855-16.049c2.701-5.755 7.927-11.43 17.883-14.031M16.88 110.413s-1.22-8.304 2.602-16.446" stroke="#C7B169" stroke-width="4" stroke-miterlimit="10" stroke-linecap="round" stroke-linejoin="round"/><path d="M81.396 208.101c2.421 1.329 3.862 1.794 6.408 2.09 6.393.747 12.188-6.336 12.188-12.891 0-6.558-5.163-12.395-11.598-12.395" stroke="#C7B169" stroke-width="4" stroke-miterlimit="10" stroke-linecap="round" stroke-linejoin="round"/><path d="M71.192 169.404s8.054-6.383 8.374-6.774c.32-.39 1.279-1.433 3.07 0 1.789 1.432 6.584 6.187 13.678.391 1.792-1.123 2.303-.978 2.878-.391.576.586 9.718 8.012 9.718 8.012s2.3 1.172.831 4.298c-1.471 3.127-20.97 20.844-39.892 0-2.621-2.997 1.343-5.536 1.343-5.536zm-1.822 2.638l40.434.228" stroke="#C7B169" stroke-width="4" stroke-miterlimit="10" stroke-linecap="round" stroke-linejoin="round"/></svg>
